X:121
M:C|
L:1/8
K:C Minor
E|B,EG,E B,G,G,E|B,G,B,E G2 GB|B,EG,E B,EGB|AGFD F2F:|
c|BG e2 BGGc|BGBc Bedc|BGe2 BGGB|AGFE F2FG|BG e2 BGGc|

